X:1
T: Lady Louisa Ramsay's Strathspey
C:
R:Strathspey
Q: 128
K:C
M:4/4
L:1/16
|:g2|eg3 g3a g2e2 c2g2|g3c a3c e2d2 d2f2|eg3 g3a g2a2 g2e2|fedc B2g2 e2c2 c2g2|
eg3 g3a g2e2 c2g2|g3c a3c e2d2 d2f2|eg3 g3a g2a2 g2e2|fedc B2g2 e2c2 c2z2|
Gc3 Ec3 d3c de3|ce3 e3d cA3 Ac3|Gc3 Ec3 d2c2 de3|c3G ABcG E2C2 C2c2|
G3c E3c d3c d3e|cc3 e3d c2A2 A2c2|Gc3 E3c Fc3 Gc3|A2a2 g3f e2c2 c2:|
